X:4046
T:Mary Jessie Gillis
O:england
R:march
C:Paul S. Cranford
D:Fiddler's Choice Jerry Holland
B:The Lighthouse Collection, ISBN 0-9691181-5-5
H:originally composed in G major
N:Contacts ...
N:..... Cranford Publications <http://www.cranfordpub.com>
L:1/8
Q:244
M:C|
K:A
(3(EFG)|A3 B c2 B<A|F2 A2 E2 C<B,|A,2 A2 c2 B<A|G2 B2 B2 (3(EFG)|
A3 B c2 B<A|F2 A2 E2 CCE<A E<AG<B|c2 A2 A2:|
|:(3efg|a2 c2 d2 f2|e>dce f<ed>c|[1B2 e2 e2 (3efg|
a2 c2 d2 f2|e>dcEF<A E>AG<B|c2 A2 A2:|
[2 B>AG<A B>dcA,C<E D<FE<A|G>B (3(EFG) A2 (3(EFG)|A>EF<A E>CD<B,|C2 A,2 A,2|]
